Gruvbox-Plus-Dark/apps/scalable/Hulu.svg

<svg xmlns="http://www.w3.org/2000/svg" style="isolation:isolate" width="256" height="256" viewBox="0 0 256 256">
 <g filter="url(#5Yv02Lb0gTweVze83UOrEEk7Nfj2mkCH)">
  <linearGradient id="_lgradient_58" x1="0" x2="0" y1="0" y2="1" gradientTransform="matrix(244.648309,0,0,228.338396,5.68,11.951604)" gradientUnits="userSpaceOnUse">
   <stop offset="0%" style="stop-color:#545e63"/>
   <stop offset="100%" style="stop-color:#3c3836"/>
  </linearGradient>
  <path fill="url(#_lgradient_58)" d="M 165.688919 11.951604 C 239.744626 11.951604 250.328309 22.508801 250.328309 96.495462 L 250.328309 155.746257 C 250.328309 229.732514 239.744626 240.29 165.688919 240.29 L 90.319393 240.29 C 16.26369 240.29 5.68 229.732514 5.68 155.746257 L 5.68 96.495462 C 5.68 22.508801 16.26369 11.951604 90.319393 11.951604 L 165.688919 11.951604 Z"/>
 </g>
 <g opacity=".4">
  <linearGradient id="_lgradient_59" x1=".517" x2=".517" y1="0" y2="1" gradientTransform="matrix(244.65,0,0,228.34,5.68,11.95)" gradientUnits="userSpaceOnUse">
   <stop offset="0%" style="stop-color:#ebdbb2"/>
   <stop offset="12.5%" stop-opacity=".098" style="stop-color:#ebdbb2"/>
   <stop offset="92.5%" stop-opacity=".098" style="stop-color:#282828"/>
   <stop offset="100%" stop-opacity=".498" style="stop-color:#282828"/>
  </linearGradient>
  <path fill="url(#_lgradient_59)" fill-rule="evenodd" d="M 165.06803 11.951234 C 169.395994 11.941409 173.723944 11.990533 178.051908 12.088781 C 181.927398 12.167379 185.802873 12.31475 189.678362 12.540721 C 193.1309 12.737216 196.583423 13.022134 200.026115 13.395476 C 203.085193 13.729518 206.144271 14.181458 209.173842 14.741469 C 211.888645 15.242533 214.57394 15.881143 217.219897 16.6573 C 219.619947 17.354858 221.970814 18.219439 224.242988 19.241215 C 226.357793 20.184394 228.384061 21.304417 230.302129 22.591462 C 232.141505 23.829383 233.862851 25.244151 235.436659 26.80629 C 237.000621 28.378252 238.417046 30.087764 239.656409 31.924995 C 240.944972 33.840824 242.066305 35.864728 243.020409 37.967229 C 244.043389 40.246576 244.908985 42.584873 245.617197 44.972292 C 246.394255 47.615155 247.033606 50.297317 247.535265 53.008956 C 248.095924 56.034984 248.548399 59.080665 248.882828 62.13617 C 249.256611 65.574836 249.541856 69.013506 249.738578 72.462003 C 249.964823 76.323139 250.112361 80.194101 250.200884 84.055237 C 250.289421 88.378131 250.338591 92.701032 250.32876 97.014106 L 250.32876 155.225886 C 250.338591 159.54878 250.289421 163.861854 250.200884 168.184747 C 250.112361 172.05571 249.964823 175.916853 249.738578 179.777981 C 249.541856 183.226485 249.256611 186.674975 248.882828 190.103826 C 248.548399 193.15933 248.095924 196.214835 247.535265 199.240851 C 247.033606 201.942664 246.394255 204.624837 245.617197 207.267703 C 244.908985 209.655115 244.043389 212.003235 243.020409 214.272755 C 242.066305 216.38509 240.944972 218.399156 239.656409 220.314999 C 238.417046 222.152226 237.000621 223.871561 235.436659 225.433697 C 233.862851 226.995832 232.141505 228.410601 230.302129 229.648532 C 228.384061 230.935575 226.357793 232.055598 224.242988 232.998768 C 221.970814 234.020552 219.619947 234.885137 217.219897 235.592507 C 214.57394 236.368672 211.888645 237.007276 209.173842 237.498515 C 206.144271 238.068354 203.085193 238.510465 200.026115 238.844519 C 196.583423 239.21785 193.1309 239.502777 189.678362 239.699269 C 185.802873 239.925235 181.927398 240.072615 178.051908 240.161035 C 173.723944 240.249454 169.395994 240.298581 165.06803 240.288762 L 90.941963 240.288762 C 86.614006 240.298581 82.286049 240.249454 77.9581 240.161035 C 74.08261 240.072615 70.20712 239.925235 66.331638 239.699269 C 62.879108 239.502777 59.426578 239.21785 55.983886 238.844519 C 52.924808 238.510465 49.865733 238.068354 46.836162 237.498515 C 44.121356 237.007276 41.436057 236.368672 38.7901 235.592507 C 36.390053 234.885137 34.039187 234.020552 31.767009 232.998768 C 29.652213 232.055598 27.625943 230.935575 25.707871 229.648532 C 23.868489 228.410601 22.147143 226.995832 20.573343 225.433697 C 19.009377 223.871561 17.592955 222.152226 16.353586 220.314999 C 15.065036 218.399156 13.943701 216.38509 12.989584 214.272755 C 11.966612 212.003235 11.101021 209.655115 10.392811 207.267703 C 9.615746 204.624837 8.976389 201.942664 8.47474 199.240851 C 7.914072 196.214835 7.461604 193.15933 7.127172 190.103826 C 6.753394 186.674975 6.468142 183.226485 6.271417 179.777981 C 6.045183 175.916853 5.897639 172.05571 5.809112 168.184747 C 5.720586 163.861854 5.671405 159.54878 5.681241 155.225886 L 5.681241 97.014106 C 5.671405 92.701032 5.720586 88.378131 5.809112 84.055237 C 5.897639 80.194101 6.045183 76.323139 6.271417 72.462003 C 6.468142 69.013506 6.753394 65.574836 7.127172 62.13617 C 7.461604 59.080665 7.914072 56.034984 8.47474 53.008956 C 8.976389 50.297317 9.615746 47.615155 10.392811 44.972292 C 11.101021 42.584873 11.966612 40.246576 12.989584 37.967229 C 13.943701 35.864728 15.065036 33.840824 16.353586 31.924995 C 17.592955 30.087764 19.009377 28.378252 20.573343 26.80629 C 22.147143 25.244151 23.868489 23.829383 25.707871 22.591462 C 27.625943 21.304417 29.652213 20.184394 31.767009 19.241215 C 34.039187 18.219439 36.390053 17.354858 38.7901 16.6573 C 41.436057 15.881143 44.121356 15.242533 46.836162 14.741469 C 49.865733 14.181458 52.924808 13.729518 55.983886 13.395476 C 59.426578 13.022134 62.879108 12.737216 66.331638 12.540721 C 70.20712 12.31475 74.08261 12.167379 77.9581 12.088781 C 82.286049 11.990533 86.614006 11.941409 90.941963 11.951234 L 165.06803 11.951234 Z M 165.077876 15.959741 C 169.376317 15.949916 173.674759 15.99904 177.973216 16.087463 C 181.799522 16.175886 185.625827 16.323257 189.452133 16.539402 C 192.835809 16.735898 196.219486 17.010992 199.583486 17.384332 C 202.554026 17.698726 205.514751 18.131016 208.445953 18.681203 C 211.023049 19.152792 213.580483 19.761928 216.098564 20.498786 C 218.321569 21.147221 220.495374 21.952852 222.600334 22.896029 C 224.508571 23.750785 226.338116 24.762737 228.069293 25.922059 C 229.692286 27.012609 231.207063 28.260355 232.59398 29.645648 C 233.980897 31.030941 235.230091 32.543956 236.331763 34.165043 C 237.492434 35.894202 238.505568 37.711787 239.361333 39.607968 C 240.305606 41.720292 241.112187 43.891565 241.761369 46.102139 C 242.508934 48.617282 243.108947 51.161898 243.590914 53.735987 C 244.131912 56.663768 244.564709 59.6112 244.889308 62.578282 C 245.263091 65.938355 245.538505 69.308252 245.735227 72.687976 C 245.951626 76.509812 246.10901 80.321821 246.187687 84.143656 C 246.276225 88.437084 246.325394 92.720685 246.325394 97.014106 C 246.325394 97.014106 246.325394 97.014106 246.325394 97.014106 L 246.325394 155.225886 C 246.325394 155.225886 246.325394 155.225886 246.325394 155.225886 C 246.325394 159.519306 246.276225 163.802907 246.187687 168.096328 C 246.10901 171.918164 245.951626 175.739999 245.735227 179.552015 C 245.538505 182.931739 245.263091 186.301629 244.889308 189.671533 C 244.564709 192.628784 244.131912 195.576216 243.590914 198.503994 C 243.108947 201.078094 242.508934 203.622706 241.761369 206.137845 C 241.112187 208.358253 240.305606 210.5197 239.361333 212.63202 C 238.505568 214.528209 237.492434 216.355617 236.331763 218.074952 C 235.230091 219.705853 233.980897 221.218876 232.59398 222.604172 C 231.207063 223.979634 229.692286 225.227385 228.069293 226.317935 C 226.338116 227.477251 224.508571 228.489201 222.600334 229.343951 C 220.495374 230.296956 218.321569 231.092775 216.098564 231.741198 C 213.580483 232.478056 211.023049 233.087202 208.445953 233.558787 C 205.514751 234.108972 202.554026 234.541264 199.583486 234.865483 C 196.219486 235.228995 192.835809 235.513922 189.452133 235.70058 C 185.625827 235.916726 181.799522 236.073926 177.973216 236.152526 C 173.674759 236.25078 169.376317 236.290072 165.077876 236.290072 C 165.077876 236.290072 165.077876 236.290072 165.06803 236.290072 L 90.941963 236.290072 C 90.932125 236.290072 90.932125 236.290072 90.932125 236.290072 C 86.633683 236.290072 82.335234 236.25078 78.036784 236.152526 C 74.210479 236.073926 70.384173 235.916726 66.557868 235.70058 C 63.174195 235.513922 59.790522 235.228995 56.426518 234.865483 C 53.455967 234.541264 50.495253 234.108972 47.564048 233.558787 C 44.986944 233.087202 42.429517 232.478056 39.911433 231.741198 C 37.688439 231.092775 35.514626 230.296956 33.409665 229.343951 C 31.501429 228.489201 29.671886 227.477251 27.940703 226.317935 C 26.31772 225.227385 24.802935 223.979634 23.416022 222.604172 C 22.029109 221.218876 20.779904 219.705853 19.678243 218.074952 C 18.517564 216.355617 17.504428 214.528209 16.648674 212.63202 C 15.704392 210.5197 14.897819 208.358253 14.248626 206.137845 C 13.50107 203.622706 12.901057 201.078094 12.419081 198.503994 C 11.878086 195.576216 11.445291 192.628784 11.120694 189.671533 C 10.746916 186.301629 10.471501 182.931739 10.274776 179.552015 C 10.058378 175.739999 9.900997 171.918164 9.822307 168.096328 C 9.733781 163.802907 9.6846 159.519306 9.6846 155.225886 C 9.6846 155.225886 9.6846 155.225886 9.6846 155.225886 L 9.6846 97.014106 C 9.6846 97.014106 9.6846 97.014106 9.6846 97.014106 C 9.6846 92.720685 9.733781 88.437084 9.822307 84.143656 C 9.900997 80.321821 10.058378 76.509812 10.274776 72.687976 C 10.471501 69.308252 10.746916 65.938355 11.120694 62.578282 C 11.445291 59.6112 11.878086 56.663768 12.419081 53.735987 C 12.901057 51.161898 13.50107 48.617282 14.248626 46.102139 C 14.897819 43.891565 15.704392 41.720292 16.648674 39.607968 C 17.504428 37.711787 18.517564 35.894202 19.678243 34.165043 C 20.779904 32.543956 22.029109 31.030941 23.416022 29.645648 C 24.802935 28.260355 26.31772 27.012609 27.940703 25.922059 C 29.671886 24.762737 31.501429 23.750785 33.409665 22.896029 C 35.514626 21.952852 37.688439 21.147221 39.911433 20.498786 C 42.429517 19.761928 44.986944 19.152792 47.564048 18.681203 C 50.495253 18.131016 53.455967 17.698726 56.426518 17.384332 C 59.790522 17.010992 63.174195 16.735898 66.557868 16.539402 C 70.384173 16.323257 74.210479 16.175886 78.036784 16.087463 C 82.335234 15.99904 86.633683 15.949916 90.932125 15.959741 C 90.932125 15.959741 90.932125 15.959741 90.941963 15.959741 L 165.06803 15.959741 C 165.077876 15.959741 165.077876 15.959741 165.077876 15.959741 Z"/>
 </g>
 <linearGradient id="_lgradient_60" x1="0" x2="0" y1="0" y2="1" gradientTransform="matrix(165,0,0,54.582899,45.5,100.70855)" gradientUnits="userSpaceOnUse">
  <stop offset="0%" style="stop-color:#8ec07c"/>
  <stop offset="100%" style="stop-color:#458588"/>
 </linearGradient>
 <path fill="url(#_lgradient_60)" d="M 45.5 100.715426 L 45.5 155.29145 L 58.604296 155.29145 L 58.604296 133.159902 C 58.637686 132.259932 59.025724 131.409709 59.683716 130.794804 C 60.372309 130.121873 61.292397 129.738093 62.255073 129.722259 L 69.776637 129.722259 C 70.69105 129.722259 71.440456 130.176028 72.141735 130.794804 C 72.843014 131.41358 73.138652 132.245489 73.21428 133.159902 L 73.21428 155.29145 L 86.325451 155.29145 L 86.325451 131.441081 C 86.325451 128.161569 85.679174 125.562711 84.38662 123.49325 C 83.063518 121.559145 81.19412 120.063147 79.017022 119.196196 C 76.65347 118.139732 74.083553 117.625279 71.495458 117.690508 L 62.90135 117.690508 L 59.676841 118.123651 C 58.927434 118.32991 58.604296 118.549919 58.604296 118.549919 L 58.604296 100.715426 L 45.5 100.715426 Z M 146.484208 100.715426 L 146.484208 155.29145 L 159.588504 155.29145 L 159.588504 100.70855 L 146.484208 100.715426 Z M 95.765219 117.690508 L 95.765219 140.8946 C 95.765219 143.954102 96.246489 146.484208 97.484041 148.629297 C 98.721593 150.781262 100.632922 152.500083 102.860515 153.572628 C 105.14311 154.645173 107.53571 155.29145 110.595212 155.29145 L 123.486374 155.29145 L 123.486374 155.078316 C 126.222738 155.078316 128.67034 154.507667 130.574795 153.359494 C 132.479249 152.121943 134.012438 150.348119 135.084983 148.203029 C 136.081899 146.051065 136.508167 143.630964 136.59067 140.8946 L 136.59067 117.690508 L 123.486374 117.690508 L 123.486374 139.608921 C 123.41829 140.559939 123.041712 141.462759 122.41383 142.180278 C 121.777472 142.807805 120.939743 143.19014 120.048731 143.259698 L 112.320909 143.259698 C 111.426621 143.208638 110.583427 142.82626 109.955811 142.187154 C 109.293392 141.486126 108.911685 140.566115 108.883266 139.602046 L 108.883266 117.690508 L 95.765219 117.690508 Z M 169.674549 117.690508 L 169.674549 140.8946 C 169.757052 143.954102 170.320826 146.484208 171.61338 148.629297 C 172.899058 150.781262 174.569753 152.500083 176.769845 153.572628 C 179.05244 154.645173 181.520668 155.29145 184.504542 155.29145 L 197.395704 155.29145 L 197.395704 155.078316 C 200.132068 155.078316 202.497167 154.507667 204.484124 153.359494 C 206.388579 152.121943 208.004271 150.348119 208.994312 148.203029 C 210.046231 146.07169 210.5 143.630964 210.5 140.8946 L 210.5 117.690508 L 197.395704 117.690508 L 197.395704 139.608921 C 197.362081 140.56912 196.978114 141.483792 196.316284 142.180278 C 195.691085 142.819818 194.850717 143.204476 193.958061 143.259698 L 186.223363 143.259698 C 185.325087 143.22517 184.476072 142.840152 183.858265 142.187154 C 183.195846 141.486126 182.81414 140.566115 182.78572 139.602046 L 182.78572 117.690508 L 169.674549 117.690508 Z"/>
</svg>

<svg width="256" height="256" style="isolation:isolate" version="1.1" viewBox="0 0 256 256" xmlns="http://www.w3.org/2000/svg">
  <g filter="url(#gQI1WCYhhg8FFL9QzCbL2kT7XCTOaOfd)">
    <linearGradient id="_lgradient_0" x1=".4921" x2=".9484" y1="1.002" y2=".007576" gradientTransform="matrix(244.6 0 0 228.3 5.68 11.95)" gradientUnits="userSpaceOnUse">
      <stop stop-color="#427b58" offset=".02609"/>
      <stop stop-color="#689d6a" offset=".5609"/>
      <stop stop-color="#8ec07c" offset="1"/>
    </linearGradient>
    <path d="m165.7 11.95c74.06 0 84.64 10.56 84.64 84.54v59.25c0 73.99-10.58 84.54-84.64 84.54h-75.37c-74.06 0-84.64-10.56-84.64-84.54v-59.25c0-73.99 10.58-84.54 84.64-84.54h75.37z" fill="url(#_lgradient_0)"/>
  </g>
  <g opacity=".4">
    <g opacity=".4">
      <g opacity=".4">
        <linearGradient id="_lgradient_1" x1=".517" x2=".517" y1="1.125e-6" y2="1.209" gradientTransform="matrix(244.7 0 0 228.3 5.68 11.95)" gradientUnits="userSpaceOnUse">
          <stop stop-color="#ebdbb2" offset="0"/>
          <stop stop-color="#ebdbb2" stop-opacity=".098" offset=".125"/>
          <stop stop-color="#282828" stop-opacity=".098" offset=".925"/>
          <stop stop-color="#282828" stop-opacity=".498" offset="1"/>
        </linearGradient>
        <path d="m165.1 11.95c4.328-0.01 8.656 0.04 12.98 0.138 3.875 0.078 7.751 0.226 11.63 0.452 3.453 0.196 6.905 0.481 10.35 0.854 3.059 0.335 6.118 0.786 9.148 1.346 2.715 0.502 5.4 1.14 8.046 1.916 2.4 0.698 4.751 1.562 7.023 2.584 2.115 0.943 4.141 2.063 6.059 3.35 1.84 1.238 3.561 2.653 5.135 4.215 1.564 1.572 2.98 3.282 4.219 5.119 1.289 1.916 2.41 3.94 3.364 6.042 1.023 2.28 1.889 4.618 2.597 7.005 0.777 2.643 1.417 5.325 1.918 8.037 0.561 3.026 1.013 6.072 1.348 9.127 0.374 3.439 0.659 6.878 0.856 10.33 0.226 3.861 0.373 7.732 0.462 11.59 0.088 4.323 0.138 8.646 0.128 12.96v58.21c0.01 4.323-0.04 8.636-0.128 12.96-0.089 3.871-0.236 7.732-0.462 11.59-0.197 3.448-0.482 6.897-0.856 10.33-0.335 3.055-0.787 6.111-1.348 9.137-0.501 2.702-1.141 5.384-1.918 8.027-0.708 2.387-1.574 4.735-2.597 7.005-0.954 2.112-2.075 4.126-3.364 6.042-1.239 1.837-2.655 3.557-4.219 5.119-1.574 1.562-3.295 2.977-5.135 4.215-1.918 1.287-3.944 2.407-6.059 3.35-2.272 1.022-4.623 1.886-7.023 2.594-2.646 0.776-5.331 1.414-8.046 1.906-3.03 0.569-6.089 1.011-9.148 1.346-3.443 0.373-6.895 0.658-10.35 0.854-3.875 0.226-7.751 0.374-11.63 0.462-4.328 0.088-8.656 0.138-12.98 0.128h-74.13c-4.328 0.01-8.656-0.04-12.98-0.128-3.875-0.088-7.751-0.236-11.63-0.462-3.453-0.196-6.905-0.481-10.35-0.854-3.059-0.335-6.118-0.777-9.148-1.346-2.715-0.492-5.4-1.13-8.046-1.906-2.4-0.708-4.751-1.572-7.023-2.594-2.115-0.943-4.141-2.063-6.059-3.35-1.84-1.238-3.561-2.653-5.135-4.215-1.564-1.562-2.98-3.282-4.219-5.119-1.289-1.916-2.41-3.93-3.364-6.042-1.023-2.27-1.889-4.618-2.597-7.005-0.777-2.643-1.417-5.325-1.918-8.027-0.561-3.026-1.013-6.082-1.348-9.137-0.374-3.429-0.659-6.878-0.856-10.33-0.226-3.861-0.373-7.722-0.462-11.59-0.088-4.323-0.138-8.636-0.128-12.96v-58.21c-0.01-4.313 0.04-8.636 0.128-12.96 0.089-3.861 0.236-7.732 0.462-11.59 0.197-3.448 0.482-6.887 0.856-10.33 0.335-3.055 0.787-6.101 1.348-9.127 0.501-2.712 1.141-5.394 1.918-8.037 0.708-2.387 1.574-4.725 2.597-7.005 0.954-2.102 2.075-4.126 3.364-6.042 1.239-1.837 2.655-3.547 4.219-5.119 1.574-1.562 3.295-2.977 5.135-4.215 1.918-1.287 3.944-2.407 6.059-3.35 2.272-1.022 4.623-1.886 7.023-2.584 2.646-0.776 5.331-1.414 8.046-1.916 3.03-0.56 6.089-1.011 9.148-1.346 3.443-0.373 6.895-0.658 10.35-0.854 3.875-0.226 7.751-0.374 11.63-0.452 4.328-0.098 8.656-0.148 12.98-0.138h74.13zm0.01 4.009c4.298-0.01 8.597 0.039 12.9 0.127 3.827 0.089 7.653 0.236 11.48 0.452 3.384 0.197 6.768 0.472 10.13 0.845 2.97 0.315 5.931 0.747 8.862 1.297 2.577 0.472 5.135 1.081 7.653 1.818 2.223 0.648 4.397 1.454 6.501 2.397 1.909 0.855 3.738 1.867 5.469 3.026 1.623 1.091 3.138 2.338 4.525 3.724 1.387 1.385 2.636 2.898 3.738 4.519 1.161 1.729 2.174 3.547 3.029 5.443 0.945 2.112 1.751 4.284 2.401 6.494 0.747 2.515 1.347 5.06 1.829 7.634 0.541 2.928 0.974 5.875 1.298 8.842 0.374 3.36 0.65 6.73 0.846 10.11 0.217 3.822 0.374 7.634 0.453 11.46 0.088 4.293 0.138 8.577 0.138 12.87v58.21c0 4.293-0.05 8.577-0.138 12.87-0.079 3.822-0.236 7.644-0.453 11.46-0.196 3.38-0.472 6.75-0.846 10.12-0.324 2.957-0.757 5.904-1.298 8.832-0.482 2.574-1.082 5.119-1.829 7.634-0.65 2.22-1.456 4.382-2.401 6.494-0.855 1.896-1.868 3.724-3.029 5.443-1.102 1.631-2.351 3.144-3.738 4.529-1.387 1.376-2.902 2.623-4.525 3.714-1.731 1.159-3.56 2.171-5.469 3.026-2.104 0.953-4.278 1.749-6.501 2.397-2.518 0.737-5.076 1.346-7.653 1.818-2.931 0.55-5.892 0.982-8.862 1.306-3.364 0.364-6.748 0.649-10.13 0.836-3.826 0.216-7.652 0.373-11.48 0.452-4.298 0.098-8.597 0.137-12.9 0.137h-0.01-74.13-0.01c-4.298 0-8.597-0.039-12.9-0.137-3.826-0.079-7.653-0.236-11.48-0.452-3.384-0.187-6.767-0.472-10.13-0.836-2.971-0.324-5.932-0.756-8.863-1.306-2.577-0.472-5.134-1.081-7.653-1.818-2.223-0.648-4.396-1.444-6.501-2.397-1.909-0.855-3.738-1.867-5.469-3.026-1.623-1.091-3.138-2.338-4.525-3.714-1.387-1.385-2.636-2.898-3.738-4.529-1.16-1.719-2.174-3.547-3.029-5.443-0.945-2.112-1.751-4.274-2.4-6.494-0.748-2.515-1.348-5.06-1.83-7.634-0.541-2.928-0.974-5.875-1.298-8.832-0.374-3.37-0.649-6.74-0.846-10.12-0.217-3.812-0.374-7.634-0.453-11.46-0.088-4.293-0.137-8.577-0.137-12.87v-58.21c0-4.293 0.049-8.577 0.137-12.87 0.079-3.822 0.236-7.634 0.453-11.46 0.197-3.38 0.472-6.75 0.846-10.11 0.324-2.967 0.757-5.914 1.298-8.842 0.482-2.574 1.082-5.119 1.83-7.634 0.649-2.21 1.455-4.382 2.4-6.494 0.855-1.896 1.869-3.714 3.029-5.443 1.102-1.621 2.351-3.134 3.738-4.519 1.387-1.386 2.902-2.633 4.525-3.724 1.731-1.159 3.56-2.171 5.469-3.026 2.105-0.943 4.278-1.749 6.501-2.397 2.519-0.737 5.076-1.346 7.653-1.818 2.931-0.55 5.892-0.982 8.863-1.297 3.364-0.373 6.747-0.648 10.13-0.845 3.826-0.216 7.652-0.363 11.48-0.452 4.298-0.088 8.597-0.137 12.9-0.127h0.01 74.13 0.01z" fill="url(#_lgradient_1)" fill-rule="evenodd"/>
      </g>
    </g>
  </g>
  <path d="m63.02 114.4h-9.651c-1.738-0.083-3.472 0.225-5.074 0.902v-20.33h-15.07v62.26h15.04v-25.12c0-1.07 0.427-2.096 1.187-2.85s1.789-1.174 2.86-1.166h8.747c1.071-8e-3 2.1 0.412 2.86 1.166s1.188 1.78 1.188 2.85v25.12h15.07v-27.08c0-11.39-7.596-15.75-17.12-15.75h-0.031zm144.7 0v25.12c0 2.217-1.798 4.015-4.016 4.015h-8.779c-1.07 9e-3 -2.1-0.411-2.859-1.165-0.76-0.754-1.188-1.78-1.188-2.85v-25.12h-15.04v26.37c0 10.8 6.818 16.47 17.15 16.47h14.72c9.34 0 15.07-6.693 15.07-16.38v-26.46h-15.07zm-84.92 25.12c0 1.07-0.428 2.096-1.188 2.85s-1.789 1.174-2.86 1.165h-8.747c-1.071 9e-3 -2.1-0.411-2.86-1.165s-1.187-1.78-1.187-2.85v-25.12h-15.04v26.37c0 10.8 6.911 16.47 17.03 16.47h14.72c9.339 0 15.07-6.693 15.07-16.38v-26.46h-14.94v25.12zm26.52 17.71h15.07v-62.26h-15.07v62.26z" fill="#ebdbb2"/>
</svg>
